X:340
T: Humors of Lisheen
S: "Johnny O'Leary of Sliabh Luachra" (#213)
Z: B.Black
L: 1/8
M: 6/8
R: jig
K: G
efg edB|ccA BGE|GFG BdB|BAA ABd|
efg edB|cBA BGE|GFG BdB|AGG GB/c/d|
ezg edB|ccA BGE|GFG BdB|BAA ABd|
efg edB|c/d/cA BGE|GFG BdB|AGG G2F||
GBd g2g|agf g2g|gfe fdB|cBA BGE|
G/A/Bd gfg|agf g2g|gfg BdB|1 AGG G2F :|2\
AGG GBd||
